X: 45
T: Millhill's Slow Strathspey
T: Strathspey, A
C: J. Scott Skinner
L: 1/16
M: C
K: A
|: A,4A,3B,1 C1E3 E1F3| D4D3E1 F1A3 (3A2G2F2| E3A1 G3A1 F3A1 E3A1| D3A1 C3E1 F1B,3 B,3C1| 
A,4A,3B,1 C1E3 E1F3| D4D3E1 F1A3 (3A2G2F2| E3A1 G3A1 F3A1 E3A1| D3A1 B,3D1 C1A,3A,4:| 
|: c3d1 e1=G3 F4F1A3| B3c1 d1c1B1A1 A2G2 F2E2| A3G1 B3A1 c3B1 d3c1| e1d3 F3A1 A2G2 F2E2| 
c3d1 e1=G3 F4F1A3| B3c1 d1c1B1A1 A1G3 F2E2| F3d1 E3c1 D3B1C4| E3F1 B,3D1 C1A,3A,4:| 
D: Ray Ellis, More Like Me!, REC001, 1999
